src/basic/200/u2190-left.svg

<svg width="64" height="64" viewBox="0 0 64 64" fill="none" xmlns="http://www.w3.org/2000/svg">
<path fill-rule="evenodd" clip-rule="evenodd" d="M1.14645,32.1464l21.99995,-22l0.7072,0.7072l-21.1465,21.1464h61.2929v1h-61.29288l21.14648,21.1464l-0.7072,0.7072l-21.99995,-22l-0.35356,-0.3536z" fill="black"/>
</svg>

<svg width="64" height="64" viewBox="0 0 64 64" fill="none" xmlns="http://www.w3.org/2000/svg">
<path fill-rule="evenodd" clip-rule="evenodd" d="M1.14645 32.1464L23.1464 10.1464L23.8536 10.8536L2.7071 32H64V33H2.70712L23.8536 54.1464L23.1464 54.8536L1.14645 32.8536L0.792892 32.5L1.14645 32.1464Z" fill="black"/>
</svg>
